assets/awsdatabasemigrationservice/original.svg

<svg height="64" viewBox="0 0 64 64" width="64" xmlns="http://www.w3.org/2000/svg"><g fill="none" fill-rule="evenodd"><path d="m0 0h64v64h-64z" fill="#c925d1"/><path d="m34.995 53h1.996v-5h-1.996zm-7.987 0h1.996v-5h-1.996zm14.995-2h1.997v-4h-1.997zm-21.983 0h1.997v-4h-1.997zm11.98-23c-6.197 0-10.002-1.967-10.002-3.376v-5.628c2.341 1.433 6.366 2.004 10.002 2.004s7.661-.571 10.003-2.004v5.628c0 1.409-3.806 3.376-10.003 3.376m0 8c-6.44 0-10.002-1.9-10.002-3.214v-5.072c2.092 1.411 5.678 2.286 10.002 2.286s7.909-.875 10.003-2.286v5.072c0 1.314-3.562 3.214-10.003 3.214m0 8c-6.177 0-10.002-1.557-10.002-3v-5.178c2.074 1.355 5.628 2.178 10.002 2.178 4.373 0 7.928-.823 10.003-2.178v5.178c0 1.443-3.825 3-10.003 3m0-31c6.527 0 10.004 1.742 10.004 3s-3.478 3-10.004 3c-6.527 0-10.003-1.742-10.003-3s3.476-3 10.003-3m0-2c-5.536 0-12 1.31-12 5v25c0 3.69 6.463 5 12 5 5.536 0 12-1.31 12-5v-25c0-3.69-6.464-5-12-5" fill="#fff"/></g></svg>

<svg xmlns="http://www.w3.org/2000/svg" width="64" height="64" viewBox="0 0 64 64"><g fill="none" fill-rule="evenodd"><path fill="#c925d1" d="M0 0h64v64H0z"/><path fill="#fff" d="M34.995 53h1.996v-5h-1.996zm-7.987 0h1.996v-5h-1.996zm14.995-2H44v-4h-1.997zM20.02 51h1.997v-4H20.02zM32 28c-6.197 0-10.002-1.967-10.002-3.376v-5.628C24.339 20.429 28.364 21 32 21s7.661-.571 10.003-2.004v5.628C42.003 26.033 38.197 28 32 28m0 8c-6.44 0-10.002-1.9-10.002-3.214v-5.072C24.09 29.125 27.676 30 32 30s7.909-.875 10.003-2.286v5.072C42.003 34.1 38.441 36 32 36m0 8c-6.177 0-10.002-1.557-10.002-3v-5.178C24.072 37.177 27.626 38 32 38c4.373 0 7.928-.823 10.003-2.178V41c0 1.443-3.825 3-10.003 3m0-31c6.527 0 10.004 1.742 10.004 3S38.526 19 32 19c-6.527 0-10.003-1.742-10.003-3S25.473 13 32 13m0-2c-5.536 0-12 1.31-12 5v25c0 3.69 6.463 5 12 5 5.536 0 12-1.31 12-5V16c0-3.69-6.464-5-12-5"/></g></svg>
